src/images/rails.svg

<svg width="33px" height="40px" viewBox="459 629 33 40" version="1.1" xmlns="http://www.w3.org/2000/svg" xmlns:xlink="http://www.w3.org/1999/xlink">
    <!-- Generator: Sketch 41.1 (35376) - http://www.bohemiancoding.com/sketch -->
    <desc>Created with Sketch.</desc>
    <defs></defs>
    <path d="M461.171177,662.081444 L461.171177,668.948904 L462.922741,668.948904 L462.922741,667.160268 L464.516825,668.754352 L467.204376,668.754352 L465.072604,666.62258 C465.072604,666.62258 466.606186,666.597668 466.722147,664.37989 C466.722147,662.345098 465.186785,662.081444 463.413571,662.081444 L461.171177,662.081444 Z M463.006079,663.944223 L464.516825,663.944223 L464.516825,665.16759 L463.006079,665.16759 L463.006079,663.944223 Z M470.587392,662.109322 C469.628272,662.103687 468.298139,662.192659 468.298139,663.999979 L468.298139,668.773036 L470.095969,668.773036 L470.095969,667.605129 L471.838339,667.605129 L471.838339,668.745158 L473.645659,668.745158 L473.645659,663.740477 C473.645659,662.170713 471.901509,662.109322 470.967302,662.109322 C470.850452,662.109322 470.724409,662.110212 470.587392,662.109322 Z M470.123847,663.833008 L471.810758,663.833008 L471.810758,665.714472 L470.123847,665.714472 L470.123847,663.833008 Z M475.447048,662.113771 L477.307158,662.113771 L477.307158,668.683471 L475.447048,668.683471 L475.447048,662.113771 Z M479.25535,662.200963 L479.25535,668.770663 L483.731833,668.770663 L483.731833,667.026514 L481.086693,667.026514 L481.086693,662.171899 L479.25535,662.200963 Z M489.662121,662.142835 L489.662121,663.916049 L486.667913,663.916049 L486.667913,664.555462 L487.946738,664.555462 C488.614919,664.555462 490.010595,664.526397 490.010595,666.619614 C490.010595,668.712535 489.051475,668.828792 487.103876,668.828792 L484.749378,668.828792 L484.749378,667.229667 L487.452647,667.229667 C488.266445,667.229667 488.311524,666.96453 488.311524,666.733795 C488.311524,666.503061 487.895431,666.395405 487.04901,666.395405 C486.202589,666.395405 484.633121,665.979608 484.633121,664.351716 C484.633121,662.723823 485.446919,662.113177 487.074812,662.113177 C488.702705,662.113177 489.662121,662.142835 489.662121,662.142835 Z M462.801739,660.137107 L478.26687,660.137107 C478.26687,660.137107 474.836699,652.346413 475.708626,645.195429 C476.580849,638.044444 482.220197,634.788362 485.417855,634.439591 C488.615216,634.090524 490.359662,636.067484 490.359662,636.067484 L491.0575,635.020876 C491.0575,635.020876 486.464463,630.369711 480.650433,630.893163 C474.836403,631.416319 470.824947,635.253389 468.325128,639.904554 C465.825011,644.556016 464.371504,647.811505 463.38332,652.695184 C462.395137,657.578863 462.801739,660.137107 462.801739,660.137107 Z M459.720635,652.346413 L462.743908,652.578927 L462.220455,655.601902 L459.371865,655.253132 L459.720635,652.346413 Z M464.488057,645.951098 L465.302152,643.683793 L462.627651,642.637184 L461.755724,645.078875 L464.488057,645.951098 Z M468.266999,638.160405 L469.836764,636.300294 L467.801972,634.963044 L466.174079,636.765025 L468.266999,638.160405 Z M472.394711,630.951292 L473.790091,632.637313 L475.708626,631.532576 L474.313247,629.962812 L472.394711,630.951292 Z M479.197222,629.032757 L479.545993,630.719074 L481.929852,630.660946 L481.697041,629.14931 L479.197222,629.032757 Z M487.278558,630.835035 L487.22043,631.881347 L488.848322,632.753273 L489.197093,632.230117 L487.278558,630.835035 Z M486.929491,635.311814 L486.929491,636.183741 L488.499255,636.358126 L488.499255,635.660288 L486.929491,635.311814 Z M481.929852,636.067484 L482.685521,637.462567 L483.790258,636.59064 L483.557745,635.660288 L481.929852,636.067484 Z M479.545696,637.870059 L480.708561,639.614209 L480.010723,640.834906 L478.324702,638.974796 L479.545696,637.870059 Z M477.220558,642.695313 L476.464592,644.206949 L478.441256,645.893267 L478.906283,643.974435 L477.220558,642.695313 Z M476.406464,647.98589 L476.290207,650.020682 L478.731898,651.067291 L478.615641,649.148459 L476.406464,647.98589 Z M477.104005,655.1953 L477.685586,657.288517 L480.76669,657.462902 L479.661953,655.1953 L477.104005,655.1953 Z" id="Combined-Shape" stroke="none" fill="#F64242" fill-rule="evenodd"></path>
</svg>

<svg width="33" height="40" viewBox="459 629 33 40" xmlns="http://www.w3.org/2000/svg"><path d="M461.171 662.081v6.868h1.752v-1.789l1.594 1.594h2.687l-2.131-2.131s1.533-.025 1.65-2.243c0-2.035-1.536-2.299-3.31-2.299h-2.242zm1.835 1.863h1.51v1.224h-1.51v-1.224zm7.581-1.835c-.959-.005-2.289.084-2.289 1.891v4.773h1.798v-1.168h1.742v1.14h1.808v-5.005c0-1.57-1.744-1.63-2.679-1.63h-.38zm-.463 1.724h1.687v1.881h-1.687v-1.881zm5.323-1.72h1.86v6.57h-1.86v-6.57zm3.808.088v6.57h4.477v-1.744h-2.645v-4.855l-1.832.029zm10.407-.058v1.773h-2.994v.64h1.279c.668 0 2.064-.03 2.064 2.064 0 2.093-.96 2.209-2.907 2.209h-2.355v-1.6h2.704c.813 0 .859-.264.859-.495 0-.23-.417-.339-1.263-.339-.846 0-2.416-.415-2.416-2.043 0-1.628.814-2.239 2.442-2.239 1.628 0 2.587.03 2.587.03zm-26.86-2.006h15.465s-3.43-7.79-2.558-14.942c.872-7.15 6.511-10.407 9.709-10.755 3.197-.35 4.942 1.627 4.942 1.627l.697-1.046s-4.593-4.651-10.407-4.128c-5.814.523-9.825 4.36-12.325 9.012-2.5 4.651-3.953 7.907-4.942 12.79-.988 4.884-.581 7.442-.581 7.442zm-3.081-7.79l3.023.232-.524 3.023-2.848-.349.349-2.907zm4.767-6.396l.814-2.267-2.674-1.047-.872 2.442 2.732.872zm3.779-7.79l1.57-1.86-2.035-1.338-1.628 1.802 2.093 1.395zm4.128-7.21l1.395 1.686 1.919-1.104-1.396-1.57-1.918.988zm6.802-1.918l.349 1.686 2.384-.058-.233-1.512-2.5-.116zm8.082 1.802l-.059 1.046 1.628.872.35-.523-1.92-1.395zm-.35 4.477v.872l1.57.174v-.698l-1.57-.348zm-5 .755l.757 1.396 1.104-.872-.232-.93-1.628.406zm-2.383 1.803l1.163 1.744-.698 1.22-1.686-1.86 1.22-1.104zm-2.325 4.825l-.756 1.512 1.976 1.686.465-1.919-1.685-1.279zm-.815 5.29l-.116 2.036 2.442 1.046-.116-1.919-2.21-1.162zm.698 7.21l.582 2.094 3.08.174-1.104-2.268h-2.558z" fill="#F64242" fill-rule="evenodd"/></svg>
